X:1
T: The Bridge of Spey
C:William Marshall
R:Strathspey
Q: 128
K:D
M:4/4
L:1/16
|:B,2|A,D3 D3A, CD3 DB3|AF3 E3D B,4 B,4|A,D3 D3A, CD3 DB3|AF3 E3F D4 D2B,2|
A,D3 D3A, CD3 DB3|AF3 E3D B,4 B,4|A,D3 D3A, CD3 DB3|AF3 E3F D4 D2g2|
f3d e3c d3A B3d|AF3 E3D B,4 B,3g|f3d e3c d3A B3d|AF3 E3F D4 D3g|
f3d e3c d3A Bc d1/2c1/2B|AF3 E3D B,4 B,4|A,3D C3A, CD3 DB3|AF3 E3F D4 D2:|
